src/lib/packages/icons/src/assets/filled/radio.svg

<svg width="24" height="24" viewBox="0 0 24 24" fill="none" xmlns="http://www.w3.org/2000/svg">
<path d="M18 6.99997H9.37207L16.238 4.71091C16.631 4.57991 16.8429 4.15493 16.7129 3.76193C16.5809 3.36893 16.1589 3.15505 15.7639 3.28805L6.76392 6.28805C6.44992 6.39205 6.26101 6.68499 6.26001 6.99899H6C4 6.99899 3 7.99899 3 9.99899V16.999C3 18.999 4 19.999 6 19.999H18C20 19.999 21 18.999 21 16.999V9.99899C21 7.99999 20 6.99997 18 6.99997ZM8.5 16C7.119 16 6 14.881 6 13.5C6 12.119 7.119 11 8.5 11C9.881 11 11 12.119 11 13.5C11 14.881 9.881 16 8.5 16ZM18 15.75H14C13.586 15.75 13.25 15.414 13.25 15C13.25 14.586 13.586 14.25 14 14.25H18C18.414 14.25 18.75 14.586 18.75 15C18.75 15.414 18.414 15.75 18 15.75ZM18 12.75H14C13.586 12.75 13.25 12.414 13.25 12C13.25 11.586 13.586 11.25 14 11.25H18C18.414 11.25 18.75 11.586 18.75 12C18.75 12.414 18.414 12.75 18 12.75Z" fill="currentColor"/>
</svg>

<svg xmlns="http://www.w3.org/2000/svg" width="24" height="24" fill="none"><path fill="currentColor" d="M18 7H9.372l6.866-2.29a.751.751 0 0 0 .475-.948.748.748 0 0 0-.95-.474l-9 3A.742.742 0 0 0 6.26 7H6c-2 0-3 1-3 3v7c0 2 1 3 3 3h12c2 0 3-1 3-3v-7c0-2-1-3-3-3Zm-9.5 9a2.5 2.5 0 1 1 0-5 2.5 2.5 0 0 1 0 5Zm9.5-.25h-4a.75.75 0 0 1 0-1.5h4a.75.75 0 0 1 0 1.5Zm0-3h-4a.75.75 0 0 1 0-1.5h4a.75.75 0 0 1 0 1.5Z"/></svg>
